Numix/22/emotes/face-glasses.svg

<?xml version="1.0" encoding="UTF-8" standalone="no"?>
<svg
   xmlns:dc="http://purl.org/dc/elements/1.1/"
   xmlns:cc="http://creativecommons.org/ns#"
   xmlns:rdf="http://www.w3.org/1999/02/22-rdf-syntax-ns#"
   xmlns:svg="http://www.w3.org/2000/svg"
   xmlns="http://www.w3.org/2000/svg"
   xmlns:sodipodi="http://sodipodi.sourceforge.net/DTD/sodipodi-0.dtd"
   xmlns:inkscape="http://www.inkscape.org/namespaces/inkscape"
   width="22px"
   height="22px"
   viewBox="0 0 18 18"
   version="1.1"
   id="svg1778"
   inkscape:version="0.91 r"
   sodipodi:docname="face-glasses.svg">
  <metadata
     id="metadata1799">
    <rdf:RDF>
      <cc:Work
         rdf:about="">
        <dc:format>image/svg+xml</dc:format>
        <dc:type
           rdf:resource="http://purl.org/dc/dcmitype/StillImage" />
      </cc:Work>
    </rdf:RDF>
  </metadata>
  <defs
     id="defs1797" />
  <sodipodi:namedview
     pagecolor="#ffffff"
     bordercolor="#666666"
     borderopacity="1"
     objecttolerance="10"
     gridtolerance="10"
     guidetolerance="10"
     inkscape:pageopacity="0"
     inkscape:pageshadow="2"
     inkscape:window-width="640"
     inkscape:window-height="480"
     id="namedview1795" />
  <g
     id="surface1">
    <path
       style=" stroke:none;fill-rule:nonzero;fill:rgb(100%,85.490196%,36.862745%);fill-opacity:1;"
       d="M 15.75 9 C 15.75 12.210938 12.726562 14.8125 9 14.8125 C 5.273438 14.8125 2.25 12.210938 2.25 9 C 2.25 5.789062 5.273438 3.1875 9 3.1875 C 12.726562 3.1875 15.75 5.789062 15.75 9 Z M 15.75 9 "
       id="path1781" />
    <path
       style=" stroke:none;fill-rule:nonzero;fill:rgb(39.607843%,39.607843%,39.607843%);fill-opacity:1;"
       d="M 6.414062 10.5 C 6.625 11.582031 7.71875 12.375 9 12.375 C 10.28125 12.375 11.371094 11.582031 11.585938 10.5 L 11.222656 10.5 C 11.066406 11.144531 10.117188 11.625 9 11.625 C 7.882812 11.625 6.933594 11.144531 6.777344 10.5 Z M 6.414062 10.5 "
       id="path1783" />
    <path
       style=" stroke:none;fill-rule:nonzero;fill:rgb(49.803922%,90.196078%,93.72549%);fill-opacity:1;"
       d="M 4.6875 6.5625 L 8.0625 6.5625 C 8.167969 6.5625 8.25 6.644531 8.25 6.75 L 8.25 9 C 8.25 9.105469 8.167969 9.1875 8.0625 9.1875 L 4.6875 9.1875 C 4.582031 9.1875 4.5 9.105469 4.5 9 L 4.5 6.75 C 4.5 6.644531 4.582031 6.5625 4.6875 6.5625 Z M 4.6875 6.5625 "
       id="path1785" />
    <path
       style="fill:none;stroke-width:2;stroke-linecap:square;stroke-linejoin:miter;stroke:rgb(21.960784%,21.960784%,21.960784%);stroke-opacity:1;stroke-miterlimit:4;"
       d="M 12.5 17 L 21.5 17 C 21.78125 17 22 17.21875 22 17.5 L 22 24.5 C 22 24.78125 21.78125 25 21.5 25 L 12.5 25 C 12.21875 25 12 24.78125 12 24.5 L 12 17.5 C 12 17.21875 12.21875 17 12.5 17 Z M 12.5 17 "
       transform="matrix(0.375,0,0,0.375,0,0)"
       id="path1787" />
    <path
       style=" stroke:none;fill-rule:nonzero;fill:rgb(49.803922%,90.196078%,93.72549%);fill-opacity:1;"
       d="M 9.9375 6.5625 L 13.3125 6.5625 C 13.417969 6.5625 13.5 6.644531 13.5 6.75 L 13.5 9 C 13.5 9.105469 13.417969 9.1875 13.3125 9.1875 L 9.9375 9.1875 C 9.832031 9.1875 9.75 9.105469 9.75 9 L 9.75 6.75 C 9.75 6.644531 9.832031 6.5625 9.9375 6.5625 Z M 9.9375 6.5625 "
       id="path1789" />
    <path
       style="fill:none;stroke-width:2;stroke-linecap:square;stroke-linejoin:miter;stroke:rgb(21.960784%,21.960784%,21.960784%);stroke-opacity:1;stroke-miterlimit:4;"
       d="M 26.5 17 L 35.5 17 C 35.78125 17 36 17.21875 36 17.5 L 36 24.5 C 36 24.78125 35.78125 25 35.5 25 L 26.5 25 C 26.21875 25 26 24.78125 26 24.5 L 26 17.5 C 26 17.21875 26.21875 17 26.5 17 Z M 26.5 17 "
       transform="matrix(0.375,0,0,0.375,0,0)"
       id="path1791" />
    <path
       style=" stroke:none;fill-rule:nonzero;fill:rgb(21.960784%,21.960784%,21.960784%);fill-opacity:1;"
       d="M 8.4375 6.75 L 9.5625 6.75 C 9.667969 6.75 9.75 6.832031 9.75 6.9375 L 9.75 7.3125 C 9.75 7.417969 9.667969 7.5 9.5625 7.5 L 8.4375 7.5 C 8.332031 7.5 8.25 7.417969 8.25 7.3125 L 8.25 6.9375 C 8.25 6.832031 8.332031 6.75 8.4375 6.75 Z M 8.4375 6.75 "
       id="path1793" />
  </g>
</svg>

<svg xmlns="http://www.w3.org/2000/svg" width="22" height="22" viewBox="0 0 18 18">
 <g>
  <path d="m 15.75 9 c 0 3.211 -3.02 5.813 -6.75 5.813 c -3.727 0 -6.75 -2.602 -6.75 -5.813 c 0 -3.211 3.02 -5.813 6.75 -5.813 c 3.727 0 6.75 2.602 6.75 5.813 m 0 0" style="fill:#ffd95d;fill-opacity:1;stroke:none;fill-rule:nonzero"/>
  <path d="m 6.414 10.5 c 0.211 1.082 1.305 1.875 2.586 1.875 c 1.281 0 2.371 -0.793 2.586 -1.875 l -0.363 0 c -0.156 0.645 -1.105 1.125 -2.223 1.125 c -1.117 0 -2.066 -0.48 -2.223 -1.125 m -0.363 0" style="fill:#646464;fill-opacity:1;stroke:none;fill-rule:nonzero"/>
  <path d="m 4.688 6.563 l 3.375 0 c 0.105 0 0.188 0.082 0.188 0.188 l 0 2.25 c 0 0.105 -0.082 0.188 -0.188 0.188 l -3.375 0 c -0.105 0 -0.188 -0.082 -0.188 -0.188 l 0 -2.25 c 0 -0.105 0.082 -0.188 0.188 -0.188 m 0 0" style="fill:#7fe5ee;fill-opacity:1;stroke:none;fill-rule:nonzero"/>
  <path d="m 12.5 17 l 9 0 c 0.281 0 0.5 0.219 0.5 0.5 l 0 7 c 0 0.281 -0.219 0.5 -0.5 0.5 l -9 0 c -0.281 0 -0.5 -0.219 -0.5 -0.5 l 0 -7 c 0 -0.281 0.219 -0.5 0.5 -0.5 m 0 0" transform="matrix(0.375,0,0,0.375,0,0)" style="stroke-opacity:1;fill:none;stroke-miterlimit:4;stroke:#373737;stroke-linecap:square;stroke-linejoin:miter;stroke-width:2"/>
  <path d="m 9.938 6.563 l 3.375 0 c 0.105 0 0.188 0.082 0.188 0.188 l 0 2.25 c 0 0.105 -0.082 0.188 -0.188 0.188 l -3.375 0 c -0.105 0 -0.188 -0.082 -0.188 -0.188 l 0 -2.25 c 0 -0.105 0.082 -0.188 0.188 -0.188 m 0 0" style="fill:#7fe5ee;fill-opacity:1;stroke:none;fill-rule:nonzero"/>
  <path d="m 26.5 17 l 9 0 c 0.281 0 0.5 0.219 0.5 0.5 l 0 7 c 0 0.281 -0.219 0.5 -0.5 0.5 l -9 0 c -0.281 0 -0.5 -0.219 -0.5 -0.5 l 0 -7 c 0 -0.281 0.219 -0.5 0.5 -0.5 m 0 0" transform="matrix(0.375,0,0,0.375,0,0)" style="stroke-opacity:1;fill:none;stroke-miterlimit:4;stroke:#373737;stroke-linecap:square;stroke-linejoin:miter;stroke-width:2"/>
  <path d="m 8.438 6.75 l 1.125 0 c 0.105 0 0.188 0.082 0.188 0.188 l 0 0.375 c 0 0.105 -0.082 0.188 -0.188 0.188 l -1.125 0 c -0.105 0 -0.188 -0.082 -0.188 -0.188 l 0 -0.375 c 0 -0.105 0.082 -0.188 0.188 -0.188 m 0 0" style="fill:#373737;fill-opacity:1;stroke:none;fill-rule:nonzero"/>
 </g>
</svg>
